public/icons/phone-number.svg

<svg width="35" height="35" viewBox="0 0 35 35" fill="none" xmlns="http://www.w3.org/2000/svg">
<circle opacity="0.1" cx="17.5" cy="17.5" r="17.5" fill="#136AD0"/>
<path d="M23.0099 9.00642C23.6242 9.26906 24.1837 9.64804 24.6571 10.1214C25.1305 10.5948 25.5094 11.1543 25.7721 11.7686C26.0347 12.383 26.1763 13.0413 26.187 13.7064C26.1978 14.3716 26.0774 15.0306 25.831 15.6454C25.7432 15.8644 25.6401 16.0762 25.5225 16.2793C25.2458 16.7573 24.634 16.9204 24.1561 16.6437C23.6781 16.367 23.515 15.7552 23.7917 15.2772C23.8612 15.1571 23.9224 15.0315 23.9745 14.9014C24.1209 14.5362 24.1938 14.1413 24.1873 13.7387C24.1808 13.3359 24.095 12.9335 23.9331 12.5548C23.7712 12.176 23.5367 11.8295 23.2429 11.5356C22.949 11.2418 22.6025 11.0073 22.2237 10.8454C21.845 10.6835 21.4426 10.5977 21.0398 10.5912C20.6372 10.5847 20.2423 10.6576 19.8771 10.804C19.747 10.8561 19.6214 10.9173 19.5013 10.9868C19.0233 11.2635 18.4115 11.1004 18.1348 10.6224C17.8581 10.1445 18.0212 9.5327 18.4992 9.25598C18.7023 9.1384 18.9141 9.03527 19.1331 8.94749C19.7479 8.70112 20.4069 8.58075 21.0721 8.59148C21.7372 8.60221 22.3955 8.74376 23.0099 9.00642Z" fill="#093160"/>
<path d="M9.39027 10.0504L9.9258 9.51485C11.0974 8.34327 12.9969 8.34327 14.1684 9.51484L15.0973 10.4437C16.0523 11.3987 16.2514 12.874 15.5839 14.0479L15.529 14.1445C14.9942 15.085 14.9967 16.2489 15.631 17.1254C15.9471 17.5621 16.3041 18.0145 16.6433 18.3537C16.9825 18.6929 17.4349 19.0499 17.8716 19.366C18.7481 20.0003 19.912 20.0028 20.8525 19.468L20.949 19.4131C22.123 18.7456 23.5983 18.9447 24.5533 19.8997L25.4822 20.8286C26.6537 22.0001 26.6537 23.8996 25.4822 25.0712L24.9466 25.6067C24.384 26.1693 23.6176 26.4828 22.844 26.2969C21.1907 25.8995 18.0048 24.6649 14.1684 20.8286C10.3321 16.9922 9.09748 13.8063 8.70014 12.153C8.51422 11.3794 8.82766 10.613 9.39027 10.0504Z" fill="#093160"/>
<path d="M22.6215 12.2072C22.3221 11.9078 21.9595 11.6851 21.5601 11.5485C21.1617 11.4121 20.7391 11.3655 20.3196 11.4007C19.9004 11.4359 19.4895 11.5521 19.108 11.7358C18.8888 11.8413 18.6804 11.9685 18.486 12.1143C18.0442 12.4457 17.9546 13.0725 18.286 13.5143C18.6174 13.9561 19.2442 14.0457 19.686 13.7143C19.7785 13.645 19.8757 13.5859 19.9755 13.5379C20.1499 13.4539 20.3245 13.4073 20.4868 13.3937C20.6488 13.3801 20.7925 13.3996 20.9126 13.4407C21.0319 13.4816 21.13 13.5441 21.2073 13.6214C21.2846 13.6987 21.3472 13.7969 21.388 13.9161C21.4291 14.0362 21.4487 14.1799 21.4351 14.3419C21.4214 14.5043 21.3749 14.6788 21.2909 14.8533C21.2429 14.953 21.1838 15.0503 21.1144 15.1427C20.7831 15.5846 20.8726 16.2114 21.3144 16.5427C21.7563 16.8741 22.3831 16.7846 22.7144 16.3427C22.8602 16.1484 22.9874 15.94 23.0929 15.7208C23.2766 15.3393 23.3929 14.9283 23.4281 14.5092C23.4633 14.0896 23.4166 13.6671 23.2803 13.2686C23.1436 12.8693 22.9209 12.5066 22.6215 12.2072Z" fill="#093160"/>
</svg>

<svg xmlns="http://www.w3.org/2000/svg" width="35" height="35" fill="none"><circle cx="17.5" cy="17.5" r="17.5" fill="#136AD0" opacity=".1"/><path fill="#093160" d="M23.01 9.006a5.25 5.25 0 0 1 2.762 2.763c.263.614.404 1.272.415 1.937a5 5 0 0 1-.665 2.573 1 1 0 1 1-1.73-1.002q.105-.18.182-.376c.147-.365.22-.76.213-1.162a3.1 3.1 0 0 0-.254-1.184 3.25 3.25 0 0 0-1.71-1.71 3.1 3.1 0 0 0-1.183-.254 3 3 0 0 0-1.539.396A1 1 0 0 1 18.5 9.256q.305-.176.634-.309a5 5 0 0 1 1.94-.356c.664.011 1.322.153 1.937.415M9.39 10.05l.536-.535a3 3 0 0 1 4.242 0l.93.929a3 3 0 0 1 .486 3.604l-.055.097c-.535.94-.532 2.104.102 2.98.316.437.673.89 1.012 1.229.34.339.792.696 1.229 1.012.876.634 2.04.637 2.98.102l.097-.055a3 3 0 0 1 3.604.487l.93.929a3 3 0 0 1 0 4.242l-.536.536c-.563.562-1.33.876-2.103.69-1.653-.398-4.84-1.632-8.676-5.468s-5.07-7.023-5.468-8.676c-.186-.774.128-1.54.69-2.103"/><path fill="#093160" d="M22.622 12.207c-.3-.3-.663-.522-1.062-.659a3 3 0 0 0-1.24-.147c-.42.035-.83.151-1.212.335q-.33.158-.622.378a1 1 0 0 0 1.2 1.6q.14-.104.29-.176c.174-.084.349-.13.51-.144.163-.014.306.006.427.047a.76.76 0 0 1 .294.18.76.76 0 0 1 .181.295c.041.12.06.264.047.426-.014.162-.06.337-.144.511a1.7 1.7 0 0 1-.177.29 1 1 0 0 0 1.6 1.2q.22-.293.379-.622c.184-.382.3-.793.335-1.212a3 3 0 0 0-.148-1.24 2.76 2.76 0 0 0-.659-1.062"/></svg>
